X: 33261
T: Pumpherston, The
R: hornpipe
M: 4/4
K: Gminor
DE^F|G^FG DGB|A2G ^Fc|Bcd b2a|g2f e2d|
^c2d c2d|A2B G2B|ABc BAG|^F2d DEF|
G^FG DGB|A2G ^Fc|Bcd b2a|g2f e2d|
^c2d ABc|Bcd G2B|AG^F d2D|(G3 G2) a||
bag bag|a2d' d2a|bag bag|a2d' d2a|
bag agf|gfe fed|edc ^cdB|A2G ^F2D|
GAB GAB|^c2d c2d|GAB GAB|^c2d c2d|
GAB ^FGA|Bcd ABc|BAG d2D|G3||

